tenants/donaldduck/icons/pen.svg

<svg fill="none" height="24" viewBox="0 0 24 24" width="24" xmlns="http://www.w3.org/2000/svg"><path d="m21.8861 7.70139-5.5875-5.58744c-.1825-.1825-.4225-.14125-.5337.09125l-.7488 1.55998 5.2187 5.2187 1.56-.74874c.2325-.11125.2738-.3525.0913-.53375zm-7.8675-3.05747-5.14367.42875c-.34125.0425-.62624.115-.72499.56124v.00125c-1.39499 6.69994-6.14994 13.23864-6.14994 13.23864l1.11999 1.12 5.31245-5.3125c-.19064-.3991-.23405-.8528-.12255-1.2808s.37073-.8028.73187-1.0582c.36113-.2554.80092-.3749 1.24164-.3373.4407.0375.854.2296 1.1667.5424.3128.3127.5049.726.5424 1.1667.0376.4407-.0819.8805-.3373 1.2416-.2554.3612-.6302.6204-1.0582.7319s-.88171.0681-1.28082-.1225l-5.31245 5.3124 1.11999 1.12s6.53868-4.755 13.23858-6.1499h.0013c.4462-.0975.5187-.3825.5612-.725l.4288-5.14373-5.3362-5.3362z" fill="#000"/></svg>

<svg width="24" height="24" viewBox="0 0 24 24" fill="none" xmlns="http://www.w3.org/2000/svg">
<path d="M21.8861 7.70139L16.2986 2.11395C16.1161 1.93145 15.8761 1.9727 15.7649 2.2052L15.0161 3.76518L20.2348 8.98388L21.7948 8.23514C22.0273 8.12389 22.0686 7.88264 21.8861 7.70139ZM14.0186 4.64392L8.87493 5.07267C8.53368 5.11517 8.24869 5.18767 8.14994 5.63391V5.63516C6.75495 12.3351 2 18.8738 2 18.8738L3.11999 19.9938L8.43244 14.6813C8.2418 14.2822 8.19839 13.8285 8.30989 13.4005C8.42139 12.9725 8.68062 12.5977 9.04176 12.3423C9.40289 12.0869 9.84268 11.9674 10.2834 12.005C10.7241 12.0425 11.1374 12.2346 11.4501 12.5474C11.7629 12.8601 11.955 13.2734 11.9925 13.7141C12.0301 14.1548 11.9106 14.5946 11.6552 14.9557C11.3998 15.3169 11.025 15.5761 10.597 15.6876C10.169 15.7991 9.71529 15.7557 9.31618 15.5651L4.00373 20.8775L5.12372 21.9975C5.12372 21.9975 11.6624 17.2425 18.3623 15.8476H18.3636C18.8098 15.7501 18.8823 15.4651 18.9248 15.1226L19.3536 9.97887L14.0174 4.64267L14.0186 4.64392Z" fill="black"/>
</svg>
